**kern	**kern	**dynam
*part1	*part1	*part1
*staff2	*staff1	*
*I"Piano	*	*
*clefF4	*clefG2	*
*k[]	*k[]	*
=1	=1	=1
!	!LO:TX:b:i:t=a tempo	!
(4AA^ 4E 4cn	(8ee:L	.
.	8.cc	.
8AA~) 8E	.	.
.	16bJk	.
=	=	=
(8AA 8E	8gL	>
4AA~) 4E	16bL	.
.	16a	.
.	16f	.
.	16gJJ)	.
=	=	=
(4AA 4E	(8eL	.
.	8.c<	.
8AA~) 8E	.	.
.	16BJk<	]
=	=	=
(8AA 8E	8GL<	.
4AA~) 4E	16BL<	.
.	16A<	.
.	16F<	.
.	16GJJ<)	.
=	=	=
(4AA^ 4E	4.r	.
8AA~) 8E	.	.
=	=	=
(8AA^ 8E	4.r	.
4AA~) 4E	.	.
=	=	=
(4AA^ 4E	(8cL 8e 8a	.
.	8.g#X	.
8AA~) 8E	.	.
.	16aJk)	.
=	=	=
*-	*-	*-
!!!system-decoration: {(s1,s2)}
!!!RDF**kern: < = below
